design-system/icons/check--labs-icons.svg

<svg width="20" height="20" viewBox="0 0 20 20" fill="none" xmlns="http://www.w3.org/2000/svg">
<g clip-path="url(#clip0_234_182)">
<mask id="mask0_234_182" style="mask-type:alpha" maskUnits="userSpaceOnUse" x="0" y="0" width="24" height="24">
<rect width="23.0833" height="23.0833" fill="currentColor"/>
</mask>
<g mask="url(#mask0_234_182)">
<path d="M7.95816 11.8734L14.9998 4.83175C15.2233 4.60952 15.4841 4.49841 15.7821 4.49841C16.08 4.49841 16.3401 4.60807 16.5623 4.82737C16.7845 5.04668 16.8957 5.30709 16.8957 5.60862C16.8957 5.91015 16.7845 6.17202 16.5623 6.39425L8.72899 14.2276C8.50927 14.4498 8.25295 14.5609 7.96004 14.5609C7.66712 14.5609 7.40955 14.4498 7.18733 14.2276L3.47899 10.5192C3.25677 10.3008 3.14913 10.0413 3.15608 9.7407C3.16302 9.44029 3.27615 9.17897 3.49545 8.95675C3.71476 8.73452 3.97517 8.62341 4.2767 8.62341C4.57823 8.62341 4.84011 8.73452 5.06233 8.95675L7.95816 11.8734Z" fill="currentColor"/>
</g>
</g>
<defs>
<clipPath id="clip0_234_182">
<rect width="20" height="20" fill="white"/>
</clipPath>
</defs>
</svg>

<svg xmlns="http://www.w3.org/2000/svg" width="20" height="20" fill="none" viewBox="0 0 20 20"><g clip-path="url(#a)"><mask id="b" width="24" height="24" x="0" y="0" maskUnits="userSpaceOnUse" style="mask-type:alpha"><path fill="currentColor" d="M0 0h23.083v23.083H0z"/></mask><g mask="url(#b)"><path fill="currentColor" d="M7.958 11.873 15 4.832q.335-.333.782-.334.447 0 .78.33.334.33.334.78 0 .453-.334.786L8.73 14.228q-.33.333-.769.333a1.06 1.06 0 0 1-.773-.333L3.48 10.519a1.02 1.02 0 0 1-.323-.778q.01-.45.34-.784.33-.333.78-.334.453 0 .786.334z"/></g></g><defs><clipPath id="a"><path fill="#fff" d="M0 0h20v20H0z"/></clipPath></defs></svg>
